_inc/systems/logos/desktop.svg

<?xml version="1.0" encoding="utf-8"?>
<svg viewBox="0 0 200 40" xmlns="http://www.w3.org/2000/svg">
  <path d="M 51.102 29.399 L 54.41 10.601 L 62.411 10.601 C 64.997 10.601 66.837 11.057 67.93 11.97 C 69.023 12.882 69.569 14.361 69.569 16.406 C 69.569 17.448 69.449 18.652 69.208 20.015 C 68.606 23.384 67.579 25.79 66.125 27.233 C 64.671 28.677 62.331 29.399 59.102 29.399 Z M 61.629 15.413 L 59.253 15.413 L 57.659 24.587 L 60.035 24.587 C 60.817 24.587 61.398 24.491 61.779 24.301 C 62.16 24.11 62.411 23.674 62.531 22.993 L 63.584 17.007 C 63.604 16.887 63.614 16.727 63.614 16.526 C 63.614 16.065 63.453 15.764 63.133 15.624 C 62.812 15.484 62.31 15.413 61.629 15.413 Z M 83.158 22.301 L 77.444 22.301 L 77.053 24.587 L 84.061 24.587 L 83.219 29.399 L 70.496 29.399 L 73.805 10.601 L 86.377 10.601 L 84.813 15.413 L 78.647 15.413 L 78.226 17.94 L 83.94 17.94 Z M 85.896 29.068 L 87.581 24.105 C 89.265 24.567 90.809 24.797 92.212 24.797 C 93.616 24.797 94.749 24.737 95.611 24.617 L 95.852 23.113 L 93.355 22.872 C 91.451 22.692 90.102 22.261 89.31 21.579 C 88.518 20.897 88.122 19.935 88.122 18.692 C 88.122 18.15 88.182 17.549 88.302 16.887 C 88.764 14.321 89.601 12.556 90.814 11.594 C 92.027 10.631 93.907 10.15 96.453 10.15 C 99 10.15 101.245 10.401 103.19 10.902 L 101.626 15.714 C 99.882 15.413 98.478 15.263 97.416 15.263 C 96.353 15.263 95.451 15.313 94.709 15.413 L 94.468 16.887 L 96.483 17.098 C 98.528 17.318 99.982 17.804 100.844 18.556 C 101.707 19.308 102.138 20.316 102.138 21.579 C 102.138 22.862 101.857 24.186 101.296 25.549 C 101.015 26.251 100.709 26.837 100.378 27.309 C 100.047 27.78 99.626 28.181 99.115 28.512 C 98.604 28.842 98.137 29.093 97.716 29.264 C 97.295 29.434 96.764 29.559 96.122 29.639 C 95.18 29.78 94.027 29.85 92.664 29.85 C 90.177 29.85 87.922 29.589 85.896 29.068 Z M 111.068 21.79 L 111.098 21.218 L 110.858 21.218 L 109.444 29.399 L 103.73 29.399 L 107.038 10.601 L 112.753 10.601 L 111.399 18.271 L 111.64 18.271 C 111.8 17.629 111.981 17.148 112.181 16.827 L 115.971 10.601 L 122.136 10.601 L 116.241 19.835 L 118.978 29.399 L 112.813 29.399 L 111.159 22.662 C 111.098 22.461 111.068 22.17 111.068 21.79 Z M 136.095 15.413 L 131.944 15.413 L 129.508 29.399 L 123.794 29.399 L 126.23 15.413 L 122.109 15.413 L 122.982 10.601 L 136.967 10.601 Z M 143.554 16.887 L 142.17 24.707 L 144.546 24.707 C 145.328 24.707 145.91 24.612 146.291 24.421 C 146.672 24.231 146.922 23.795 147.043 23.113 L 148.426 15.293 L 146.02 15.293 C 145.258 15.293 144.687 15.388 144.306 15.579 C 143.925 15.769 143.674 16.205 143.554 16.887 Z M 147.013 10.15 C 149.559 10.15 151.374 10.646 152.456 11.639 C 153.539 12.631 154.081 14.16 154.081 16.225 C 154.081 18.291 153.755 20.451 153.103 22.707 C 152.451 24.963 151.419 26.717 150.005 27.97 C 148.592 29.223 146.526 29.85 143.809 29.85 C 141.093 29.85 139.193 29.354 138.11 28.361 C 137.027 27.369 136.486 25.84 136.486 23.775 C 136.486 22.792 136.626 21.494 136.907 19.88 C 137.188 18.266 137.559 16.872 138.02 15.699 C 138.481 14.526 139.102 13.509 139.885 12.646 C 141.388 10.982 143.764 10.15 147.013 10.15 Z M 165.24 24.857 L 161.51 24.857 L 160.728 29.399 L 155.014 29.399 L 158.322 10.601 L 167.345 10.601 C 170.754 10.601 172.458 12.185 172.458 15.353 C 172.458 16.857 172.248 18.215 171.827 19.429 C 171.406 20.642 170.939 21.604 170.428 22.316 C 169.917 23.028 169.215 23.629 168.323 24.12 C 167.43 24.612 166.403 24.857 165.24 24.857 Z M 163.165 15.413 L 162.353 20.045 L 163.676 20.045 C 164.358 20.045 164.874 19.97 165.225 19.82 C 165.576 19.669 165.801 19.323 165.902 18.782 C 166.162 17.298 166.293 16.486 166.293 16.346 C 166.293 15.965 166.142 15.714 165.841 15.594 C 165.541 15.473 165.089 15.413 164.488 15.413 Z" style="fill: rgb(255, 255, 255); white-space: pre;"/>
  <path d="M 44.043 12 L 29.043 12 C 28.215 12 27.543 12.672 27.543 13.5 L 27.543 23.5 C 27.543 24.328 28.215 25 29.043 25 L 35.043 25 L 34.543 26.5 L 32.293 26.5 C 31.881 26.5 31.543 26.838 31.543 27.25 C 31.543 27.662 31.881 28 32.293 28 L 40.793 28 C 41.207 28 41.543 27.664 41.543 27.25 C 41.543 26.836 41.207 26.5 40.793 26.5 L 38.543 26.5 L 38.043 25 L 44.043 25 C 44.871 25 45.543 24.328 45.543 23.5 L 45.543 13.5 C 45.543 12.672 44.871 12 44.043 12 Z M 43.543 21 L 29.543 21 L 29.543 14 L 43.543 14 L 43.543 21 Z" style="fill: rgb(221, 221, 221);"/>
</svg>

<svg xmlns="http://www.w3.org/2000/svg" viewBox="0 0 200 40"><path d="m51.1 29.4 3.31-18.8h8q3.89 0 5.52 1.37 1.65 1.37 1.64 4.44 0 1.56-.36 3.6-.9 5.06-3.08 7.22T59.1 29.4Zm10.53-14h-2.38l-1.6 9.18h2.38q1.18 0 1.75-.29t.75-1.3l1.05-6q.03-.17.03-.47 0-.7-.48-.9a4 4 0 0 0-1.5-.22m21.53 6.9h-5.72l-.39 2.28h7.01l-.84 4.8H70.5l3.3-18.79h12.58l-1.57 4.81h-6.16l-.42 2.53h5.71Zm2.74 6.76 1.68-4.96q2.53.69 4.63.69t3.4-.18l.24-1.5-2.5-.25q-2.85-.26-4.04-1.3a3.6 3.6 0 0 1-1.19-2.88q0-.81.18-1.8.7-3.85 2.51-5.3 1.83-1.44 5.64-1.44 3.83 0 6.74.75l-1.56 4.81a21 21 0 0 0-6.92-.3l-.24 1.48 2.01.2q3.07.34 4.36 1.47a3.8 3.8 0 0 1 1.3 3.02q0 1.92-.84 3.97a9 9 0 0 1-.92 1.76q-.5.7-1.27 1.2a6.4 6.4 0 0 1-3 1.13q-1.4.21-3.45.21-3.72 0-6.76-.78m25.17-7.28.03-.57h-.24l-1.42 8.18h-5.71l3.3-18.8h5.72l-1.35 7.67h.24a5 5 0 0 1 .54-1.44l3.8-6.23h6.16l-5.9 9.24 2.74 9.56h-6.17l-1.65-6.74q-.1-.3-.1-.87m25.03-6.38h-4.16l-2.43 13.99h-5.72l2.44-13.99h-4.12l.87-4.8h13.99Zm7.45 1.48-1.38 7.82h2.38q1.17 0 1.74-.29t.75-1.3l1.39-7.83h-2.41q-1.14 0-1.71.29t-.76 1.3m3.46-6.74q3.82 0 5.45 1.49 1.62 1.5 1.62 4.59t-.98 6.48a11 11 0 0 1-3.1 5.26q-2.1 1.88-6.2 1.88-4.05 0-5.69-1.49-1.62-1.5-1.62-4.59 0-1.47.42-3.89t1.11-4.18a10 10 0 0 1 1.86-3.05q2.25-2.5 7.13-2.5m18.23 14.7h-3.73l-.78 4.55H155l3.31-18.8h9.03q5.1 0 5.1 4.75a12.4 12.4 0 0 1-2.02 6.97 6.2 6.2 0 0 1-5.19 2.54m-2.08-9.44-.8 4.64h1.32q1.02 0 1.54-.23.53-.23.68-1.04.4-2.23.4-2.43 0-.58-.46-.76-.45-.18-1.35-.18Z" style="fill:#fff;white-space:pre"/><path d="M44.04 12h-15c-.82 0-1.5.67-1.5 1.5v10c0 .83.68 1.5 1.5 1.5h6l-.5 1.5H32.3a.75.75 0 0 0-.75.75c0 .41.34.75.75.75h8.5a.75.75 0 0 0 0-1.5h-2.25l-.5-1.5h6c.83 0 1.5-.67 1.5-1.5v-10c0-.83-.67-1.5-1.5-1.5m-.5 9h-14v-7h14z" style="fill:#ddd"/></svg>
